public/images/pwc.svg

<svg width="86" height="64" viewBox="0 0 86 64" fill="none" xmlns="http://www.w3.org/2000/svg">
<g style="mix-blend-mode:luminosity">
<path d="M58.3948 42.5598C55.6944 43.0281 54.2543 45.0184 54.2543 48.4721C54.2543 51.9844 56.1745 54.3259 58.9949 54.3259C60.3751 54.3259 61.5752 53.8576 64.0956 52.6283V55.4966C61.0352 56.9016 59.235 57.2528 56.8347 57.2528C54.1342 57.2528 52.214 56.6088 50.7138 55.0283C49.1536 53.5064 48.3135 51.5161 48.3135 49.2331C48.3135 44.2574 52.154 40.8037 57.7347 40.8037C61.3953 40.8037 63.9756 42.5013 63.9756 44.9013C63.9756 46.4818 62.7754 47.5941 61.0352 47.5941C60.1351 47.5941 59.4149 47.3014 58.3948 46.7746" fill="#343434"/>
<path d="M44.893 49.2331C47.3533 46.2477 48.2534 45.0184 48.2534 43.5549C48.2534 42.0915 47.0532 40.8037 45.373 40.8037C44.4129 40.8037 43.5128 41.3305 43.0927 41.7988V47.9453L39.0721 53.2136V41.2719H35.2316L28.8708 51.5161V41.2719H26.7104L20.8896 42.5598V44.0232L24.0701 44.3159V57.0186H28.0906L34.2115 47.1843V57.0186H38.7121" fill="#343434"/>
<path d="M8.70767 55.0285H9.60776C12.8482 55.0285 14.6485 53.0967 14.6485 49.2332C14.6485 46.0137 13.2083 44.2576 10.5079 44.2576C10.1478 44.2576 9.60776 44.3161 8.70767 44.4917V55.0285ZM8.70767 61.9359L11.348 62.5213V63.9848H0.966604V62.5213L3.36693 61.9359V44.2576H0.726562V42.7941L7.02746 40.9209H8.70767V43.0282C11.6481 41.2721 12.6682 40.9794 14.2285 40.9794C17.7089 40.9794 20.3493 44.1404 20.3493 48.5308C20.3493 53.5651 16.8087 57.0188 11.408 57.0188C10.808 57.0188 9.78781 56.9602 8.70767 56.9017" fill="#343434"/>
</g>
<g style="mix-blend-mode:luminosity">
<path d="M54.9443 20.2441H85.9388V27.9829H54.9443V20.2441Z" fill="#959595"/>
<path d="M54.9443 8.62842H81.9131V27.9839H54.9443V8.62842Z" fill="#BDBDBD"/>
<path d="M54.9443 0.893555H70.7711V27.9837H54.9443V0.893555Z" fill="#A9A9A9"/>
<path d="M54.9443 3.91602H73.8847V27.9833H54.9443V3.91602Z" fill="#C7C7C7"/>
<path d="M54.9404 3.92139H70.7698V27.9817H54.9404V3.92139Z" fill="#8A8A8A"/>
<path d="M39.0737 27.9839H54.9442V31.8537H39.0737V27.9839Z" fill="#444444"/>
<path d="M54.9404 8.62451H73.8942V27.9817H54.9404V8.62451Z" fill="#9B9B9B"/>
<path d="M54.9404 8.62451H70.7698V27.9817H54.9404V8.62451Z" fill="#747474"/>
<path d="M54.9443 16.3662H64.8416V27.9836H54.9443V16.3662Z" fill="#626262"/>
<path d="M54.9404 20.2505H81.9227V27.9813H54.9404V20.2505Z" fill="#727272"/>
<path d="M54.9404 20.2505H73.8942V27.9813H54.9404V20.2505Z" fill="#626262"/>
<path d="M54.9404 20.2505H70.7698V27.9813H54.9404V20.2505Z" fill="#4F4F4F"/>
<path d="M54.9404 20.2505H64.8518V27.9813H54.9404V20.2505Z" fill="#444444"/>
</g>
</svg>

<svg width="86" height="64" fill="none" xmlns="http://www.w3.org/2000/svg"><g style="mix-blend-mode:luminosity" fill="#fff"><path d="M58.395 42.56c-2.7.468-4.14 2.458-4.14 5.912 0 3.512 1.92 5.854 4.74 5.854 1.38 0 2.58-.468 5.1-1.698v2.869c-3.06 1.405-4.86 1.756-7.26 1.756-2.7 0-4.621-.644-6.121-2.225-1.56-1.522-2.4-3.512-2.4-5.795 0-4.976 3.84-8.43 9.42-8.43 3.661 0 6.242 1.698 6.242 4.098 0 1.58-1.2 2.693-2.94 2.693-.9 0-1.621-.293-2.641-.82M44.893 49.233c2.46-2.985 3.36-4.215 3.36-5.678s-1.2-2.751-2.88-2.751c-.96 0-1.86.526-2.28.995v6.146l-4.02 5.269V41.272h-3.841L28.87 51.516V41.272h-2.16L20.89 42.56v1.463l3.18.293v12.703h4.02l6.122-9.835v9.835h4.5M8.708 55.029h.9c3.24 0 5.04-1.932 5.04-5.796 0-3.22-1.44-4.975-4.14-4.975-.36 0-.9.058-1.8.234v10.537Zm0 6.907 2.64.585v1.464H.967V62.52l2.4-.585V44.258H.727v-1.464l6.3-1.873h1.68v2.107c2.941-1.756 3.961-2.049 5.521-2.049 3.48 0 6.121 3.161 6.121 7.552 0 5.034-3.54 8.488-8.941 8.488-.6 0-1.62-.059-2.7-.117"/></g><g style="mix-blend-mode:luminosity"><path d="M54.944 20.244H85.94v7.739H54.944v-7.739Z" fill="#959595"/><path d="M54.944 8.628h26.97v19.356h-26.97V8.628Z" fill="#BDBDBD"/><path d="M54.944.894h15.827v27.09H54.944V.894Z" fill="#A9A9A9"/><path d="M54.944 3.916h18.94v24.067h-18.94V3.916Z" fill="#C7C7C7"/><path d="M54.94 3.921h15.83v24.06H54.94V3.922Z" fill="#8A8A8A"/><path d="M39.074 27.984h15.87v3.87h-15.87v-3.87Z" fill="#444"/><path d="M54.94 8.625h18.954v19.357H54.94V8.625Z" fill="#9B9B9B"/><path d="M54.94 8.625h15.83v19.357H54.94V8.625Z" fill="#747474"/><path d="M54.944 16.366h9.898v11.618h-9.898V16.366Z" fill="#626262"/><path d="M54.94 20.25h26.983v7.731H54.94v-7.73Z" fill="#727272"/><path d="M54.94 20.25h18.954v7.731H54.94v-7.73Z" fill="#626262"/><path d="M54.94 20.25h15.83v7.731H54.94v-7.73Z" fill="#4F4F4F"/><path d="M54.94 20.25h9.912v7.731H54.94v-7.73Z" fill="#444"/></g></svg>
